contributed-vectors/total_connect_comfort.svg

<svg xmlns="http://www.w3.org/2000/svg" xml:space="preserve" style="fill-rule:evenodd;clip-rule:evenodd;stroke-linejoin:round;stroke-miterlimit:2" viewBox="0 0 192 192"><path d="M164.5 21.5c0-5.519-4.481-10-10-10h-133c-5.519 0-10 4.481-10 10v133c0 5.519 4.481 10 10 10h133c5.519 0 10-4.481 10-10v-133Z" style="fill:#ff837d" transform="translate(8 8)"/><path d="M90.089 79.345c2.998-7.554 10.377-12.901 18.994-12.901 10.428 0 19.041 7.83 20.275 17.925h7.136v38.912H94.78c.401-1.518.614-3.112.614-4.755 0-.735-.042-1.461-.126-2.173h34.297V91.297H90.089V79.345Zm32.683 5.024c-1.18-6.486-6.864-11.411-13.689-11.411s-12.509 4.925-13.689 11.411h27.378Z" style="fill:#fff" transform="matrix(.8618 0 0 .8618 13.276 13.254)"/><circle cx="76.808" cy="118.526" r="21.659" style="fill:#fff" transform="matrix(.1605 0 0 .1605 67.141 96.375)"/><path d="M66.072 67.21h7.372v3.813h-7.372z" style="fill:#fff" transform="matrix(.8618 0 0 .8618 13.276 13.254)"/><path d="M66.072 67.21h7.372v3.813h-7.372z" style="fill:#fff" transform="matrix(1.28528 0 0 .8618 -14.703 19.826)"/><path d="M66.072 67.21h7.372v3.813h-7.372z" style="fill:#fff" transform="matrix(.8618 0 0 .8618 13.276 26.398)"/><path d="M66.072 67.21h7.372v3.813h-7.372z" style="fill:#fff" transform="matrix(1.28528 0 0 .8618 -14.703 32.97)"/><path d="M66.072 67.21h7.372v3.813h-7.372z" style="fill:#fff" transform="matrix(.8618 0 0 .8618 13.276 39.708)"/><path d="M59.431 106.451V69.386c.061-9.539 7.824-17.265 17.377-17.265 9.59 0 17.377 7.787 17.377 17.377v36.953a21.052 21.052 0 0 1 3.785 12.075c0 11.68-9.482 21.163-21.162 21.163s-21.163-9.483-21.163-21.163c0-4.487 1.4-8.651 3.786-12.075Zm8.192-37.012c.032-5.042 4.135-9.126 9.185-9.126 5.069 0 9.185 4.116 9.185 9.185v39.439a13.245 13.245 0 0 1 4.096 9.589c0 7.33-5.951 13.281-13.281 13.281-7.33 0-13.281-5.951-13.281-13.281 0-3.768 1.572-7.171 4.096-9.589V69.439ZM107.691 103.557a4.036 4.036 0 0 1-2.586-3.765 4.036 4.036 0 0 1 4.033-4.034 4.036 4.036 0 0 1 4.033 4.034 4.036 4.036 0 0 1-2.586 3.765l2.586 7.795h-8.066l2.586-7.795Z" style="fill:#fff" transform="matrix(.8618 0 0 .8618 13.276 13.254)"/></svg>

<?xml version="1.0" encoding="UTF-8" standalone="no"?>
<!DOCTYPE svg PUBLIC "-//W3C//DTD SVG 1.1//EN" "http://www.w3.org/Graphics/SVG/1.1/DTD/svg11.dtd">
<svg width="100%" height="100%" viewBox="0 0 192 192" version="1.1" xmlns="http://www.w3.org/2000/svg" xmlns:xlink="http://www.w3.org/1999/xlink" xml:space="preserve" xmlns:serif="http://www.serif.com/" style="fill-rule:evenodd;clip-rule:evenodd;stroke-linejoin:round;stroke-miterlimit:2;">
    <g id="Layer1">
        <g transform="matrix(1,0,0,1,8,8)">
            <path d="M164.5,21.5C164.5,15.981 160.019,11.5 154.5,11.5L21.5,11.5C15.981,11.5 11.5,15.981 11.5,21.5L11.5,154.5C11.5,160.019 15.981,164.5 21.5,164.5L154.5,164.5C160.019,164.5 164.5,160.019 164.5,154.5L164.5,21.5Z" style="fill:rgb(255,131,125);"/>
        </g>
        <g transform="matrix(0.861804,0,0,0.861804,13.2764,13.2536)">
            <path d="M90.089,79.345C93.087,71.791 100.466,66.444 109.083,66.444C119.511,66.444 128.124,74.274 129.358,84.369L136.494,84.369L136.494,123.281L94.78,123.281C95.181,121.763 95.394,120.169 95.394,118.526C95.394,117.791 95.352,117.065 95.268,116.353L129.565,116.353L129.565,91.297L90.089,91.297L90.089,79.345ZM122.772,84.369C121.592,77.883 115.908,72.958 109.083,72.958C102.258,72.958 96.574,77.883 95.394,84.369L122.772,84.369Z" style="fill:white;"/>
            <g>
                <g transform="matrix(0.186246,0,0,0.186246,62.5026,96.451)">
                    <circle cx="76.808" cy="118.526" r="21.659" style="fill:white;"/>
                </g>
                <g>
                    <rect x="66.072" y="67.21" width="7.372" height="3.813" style="fill:white;"/>
                    <g transform="matrix(1.49138,0,0,1,-32.4663,7.62601)">
                        <rect x="66.072" y="67.21" width="7.372" height="3.813" style="fill:white;"/>
                    </g>
                    <g transform="matrix(1,0,0,1,0,15.252)">
                        <rect x="66.072" y="67.21" width="7.372" height="3.813" style="fill:white;"/>
                    </g>
                    <g transform="matrix(1.49138,0,0,1,-32.4663,22.878)">
                        <rect x="66.072" y="67.21" width="7.372" height="3.813" style="fill:white;"/>
                    </g>
                    <g transform="matrix(1,0,0,1,0,30.6961)">
                        <rect x="66.072" y="67.21" width="7.372" height="3.813" style="fill:white;"/>
                    </g>
                </g>
                <path d="M59.431,106.451L59.431,69.498L59.431,69.386C59.492,59.847 67.255,52.121 76.808,52.121C86.398,52.121 94.185,59.908 94.185,69.498L94.185,106.451C96.571,109.875 97.97,114.039 97.97,118.526C97.97,130.206 88.488,139.689 76.808,139.689C65.128,139.689 55.645,130.206 55.645,118.526C55.645,114.039 57.045,109.875 59.431,106.451ZM67.623,69.439C67.655,64.397 71.758,60.313 76.808,60.313C81.877,60.313 85.993,64.429 85.993,69.498L85.993,108.937C88.516,111.355 90.089,114.758 90.089,118.526C90.089,125.856 84.138,131.807 76.808,131.807C69.478,131.807 63.527,125.856 63.527,118.526C63.527,114.758 65.099,111.355 67.623,108.937L67.623,69.498L67.623,69.439Z" style="fill:white;"/>
                <path d="M107.691,103.557C106.179,102.975 105.105,101.508 105.105,99.792C105.105,97.566 106.912,95.758 109.138,95.758C111.364,95.758 113.171,97.566 113.171,99.792C113.171,101.508 112.097,102.975 110.585,103.557L113.171,111.352L105.105,111.352L107.691,103.557Z" style="fill:white;"/>
            </g>
        </g>
    </g>
</svg>
